icons/Trash_1x.svg

<svg width="24" height="24" viewBox="0 0 24 24" fill="none" xmlns="http://www.w3.org/2000/svg">
<path fill-rule="evenodd" clip-rule="evenodd" d="M8.24992,4c0,-0.9665 0.78351,-1.75 1.75,-1.75h3.99998c0.9665,0 1.75,0.7835 1.75,1.75v2.25h3.25h1c0.4142,0 0.75,0.33579 0.75,0.75c0,0.41421 -0.3358,0.75 -0.75,0.75h-0.3016l-0.8176,11.4459c-0.1028,1.4391 -1.3003,2.5541 -2.743,2.5541h-8.27554c-1.44276,0 -2.64022,-1.115 -2.74301,-2.5541l-0.81757,-11.4459h-0.30166c-0.41421,0 -0.75,-0.33579 -0.75,-0.75c0,-0.41421 0.33579,-0.75 0.75,-0.75h1h3.25zM13.9999,3.75h-3.99998c-0.13807,0 -0.25,0.11193 -0.25,0.25v2.25h4.49998v-2.25c0,-0.13807 -0.1119,-0.25 -0.25,-0.25zM6.61534,19.0891c0.04672,0.6541 0.59102,1.1609 1.24682,1.1609h8.27554c0.6558,0 1.2001,-0.5068 1.2468,-1.1609l0.8099,-11.3391h-3.1945h-5.99998h-3.19451zM15.0303,10.9697c0.2929,0.2929 0.2929,0.7677 0,1.0606l-1.9697,1.9697l1.9697,1.9697c0.2929,0.2928 0.2929,0.7677 0,1.0606c-0.2929,0.2929 -0.7678,0.2929 -1.0607,0l-1.9696,-1.9696l-1.9697,1.9696c-0.2929,0.2929 -0.76777,0.2929 -1.06066,0c-0.2929,-0.2929 -0.2929,-0.7677 0,-1.0606l1.96966,-1.9697l-1.96966,-1.9697c-0.2929,-0.2928 -0.2929,-0.7677 0,-1.0606c0.29289,-0.2929 0.76776,-0.2929 1.06066,0l1.9697,1.9696l1.9696,-1.9696c0.2929,-0.2929 0.7678,-0.2929 1.0607,0z" fill="#002B51"/>
</svg>

<svg width="24" height="24" viewBox="0 0 24 24" fill="none" xmlns="http://www.w3.org/2000/svg">
<path fill-rule="evenodd" clip-rule="evenodd" d="M8.24992 4C8.24992 3.0335 9.03343 2.25 9.99992 2.25H13.9999C14.9664 2.25 15.7499 3.0335 15.7499 4V6.25H18.9999H19.9999C20.4141 6.25 20.7499 6.58579 20.7499 7C20.7499 7.41421 20.4141 7.75 19.9999 7.75H19.6983L18.8807 19.1959C18.7779 20.635 17.5804 21.75 16.1377 21.75H7.86216C6.4194 21.75 5.22194 20.635 5.11915 19.1959L4.30158 7.75H3.99992C3.58571 7.75 3.24992 7.41421 3.24992 7C3.24992 6.58579 3.58571 6.25 3.99992 6.25H4.99992H8.24992V4ZM14.2499 4V6.25H9.74992V4C9.74992 3.86193 9.86185 3.75 9.99992 3.75H13.9999C14.138 3.75 14.2499 3.86193 14.2499 4ZM5.80541 7.75H8.99992H14.9999H18.1944L17.3845 19.0891C17.3378 19.7432 16.7935 20.25 16.1377 20.25H7.86216C7.20636 20.25 6.66206 19.7432 6.61534 19.0891L5.80541 7.75ZM15.0303 10.9697C15.3232 11.2626 15.3232 11.7374 15.0303 12.0303L13.0606 14L15.0303 15.9697C15.3232 16.2625 15.3232 16.7374 15.0303 17.0303C14.7374 17.3232 14.2625 17.3232 13.9696 17.0303L12 15.0607L10.0303 17.0303C9.7374 17.3232 9.26253 17.3232 8.96964 17.0303C8.67674 16.7374 8.67674 16.2626 8.96964 15.9697L10.9393 14L8.96964 12.0303C8.67674 11.7375 8.67674 11.2626 8.96964 10.9697C9.26253 10.6768 9.7374 10.6768 10.0303 10.9697L12 12.9393L13.9696 10.9697C14.2625 10.6768 14.7374 10.6768 15.0303 10.9697Z" fill="#002B51"/>
</svg>
